public/svgs/duotone/calendar-arrow-up.svg

<svg xmlns="http://www.w3.org/2000/svg" viewBox="0 0 448 512"><!-- Font Awesome Pro 6.0.0-alpha2 by @fontawesome - https://fontawesome.com License - https://fontawesome.com/license (Commercial License) --><defs><style>.fa-secondary{opacity:.4}</style></defs><path d="M0 464C0 490.5 21.5 512 48 512H400C426.5 512 448 490.5 448 464V192H0V464ZM127.031 327.031L207.031 247.031C216.406 237.656 231.594 237.656 240.969 247.031L320.969 327.031C330.344 336.406 330.344 351.594 320.969 360.969C316.281 365.656 310.156 368 304 368S291.719 365.656 287.031 360.969L248 321.938V424C248 437.25 237.25 448 224 448S200 437.25 200 424V321.938L160.969 360.969C151.594 370.344 136.406 370.344 127.031 360.969S117.656 336.406 127.031 327.031Z" class="fa-secondary"/><path d="M400 64H352V32C352 14.4 337.6 0 320 0H320C302.4 0 288 14.4 288 32V64H160V32C160 14.4 145.6 0 128 0H128C110.4 0 96 14.4 96 32V64H48C21.49 64 0 85.49 0 112V192H448V112C448 85.49 426.51 64 400 64ZM240.969 247.031C231.594 237.656 216.406 237.656 207.031 247.031L127.031 327.031C117.656 336.406 117.656 351.594 127.031 360.969S151.594 370.344 160.969 360.969L200 321.938V424C200 437.25 210.75 448 224 448S248 437.25 248 424V321.938L287.031 360.969C291.719 365.656 297.844 368 304 368S316.281 365.656 320.969 360.969C330.344 351.594 330.344 336.406 320.969 327.031L240.969 247.031Z" class="fa-primary"/></svg>

<svg xmlns="http://www.w3.org/2000/svg" viewBox="0 0 448 512"><!--! Font Awesome Pro 6.5.1 by @fontawesome - https://fontawesome.com License - https://fontawesome.com/license (Commercial License) Copyright 2023 Fonticons, Inc. --><defs><style>.fa-secondary{opacity:.4}</style></defs><path class="fa-secondary" d="M448 192H0V464c0 26.5 21.5 48 48 48H400c26.5 0 48-21.5 48-48V192zM248 321.9V424c0 13.3-10.7 24-24 24s-24-10.7-24-24V321.9l-39 39c-9.4 9.4-24.6 9.4-33.9 0s-9.4-24.6 0-33.9l80-80c9.4-9.4 24.6-9.4 33.9 0l80 80c9.4 9.4 9.4 24.6 0 33.9s-24.6 9.4-33.9 0l-39-39z"/><path class="fa-primary" d="M128 0C110.3 0 96 14.3 96 32V64H48C21.5 64 0 85.5 0 112v80H448V112c0-26.5-21.5-48-48-48H352V32c0-17.7-14.3-32-32-32s-32 14.3-32 32V64H160V32c0-17.7-14.3-32-32-32zM248 424V321.9l39 39c9.4 9.4 24.6 9.4 33.9 0s9.4-24.6 0-33.9l-80-80c-9.4-9.4-24.6-9.4-33.9 0l-80 80c-9.4 9.4-9.4 24.6 0 33.9s24.6 9.4 33.9 0l39-39V424c0 13.3 10.7 24 24 24s24-10.7 24-24z"/></svg>
